assets/1. F-P/Lotion bottle/Color/Lotion.Bottle-color.svg

<svg width="100%" height="100%" viewBox="0 0 32 32" fill="none" xmlns="http://www.w3.org/2000/svg">
<rect x="13.9844" y="4.1875" width="4.03125" height="6.3125" fill="url(#paint0_linear_18_26067)"/>
<rect x="13.9844" y="4.1875" width="4.03125" height="6.3125" fill="url(#paint1_radial_18_26067)"/>
<rect x="13.9844" y="4.1875" width="4.03125" height="6.3125" fill="url(#paint2_radial_18_26067)"/>
<path d="M13 3.54528C13 2.68524 13.7568 2.02163 14.6095 2.13402L21.0222 2.97928C21.5191 3.04478 21.8906 3.46845 21.8906 3.96973C21.8906 4.52147 21.4433 4.96875 20.8916 4.96875H14.4235C13.6373 4.96875 13 4.33144 13 3.54528Z" fill="#FF9294"/>
<path d="M13 3.54528C13 2.68524 13.7568 2.02163 14.6095 2.13402L21.0222 2.97928C21.5191 3.04478 21.8906 3.46845 21.8906 3.96973C21.8906 4.52147 21.4433 4.96875 20.8916 4.96875H14.4235C13.6373 4.96875 13 4.33144 13 3.54528Z" fill="url(#paint3_linear_18_26067)"/>
<path d="M13 3.54528C13 2.68524 13.7568 2.02163 14.6095 2.13402L21.0222 2.97928C21.5191 3.04478 21.8906 3.46845 21.8906 3.96973C21.8906 4.52147 21.4433 4.96875 20.8916 4.96875H14.4235C13.6373 4.96875 13 4.33144 13 3.54528Z" fill="url(#paint4_linear_18_26067)"/>
<path d="M13 3.54528C13 2.68524 13.7568 2.02163 14.6095 2.13402L21.0222 2.97928C21.5191 3.04478 21.8906 3.46845 21.8906 3.96973C21.8906 4.52147 21.4433 4.96875 20.8916 4.96875H14.4235C13.6373 4.96875 13 4.33144 13 3.54528Z" fill="url(#paint5_radial_18_26067)"/>
<g filter="url(#filter0_i_18_26067)">
<path d="M7.0625 13.6938C7.0625 10.0487 10.0174 7.09375 13.6625 7.09375H18.3375C21.9826 7.09375 24.9375 10.0487 24.9375 13.6937V26.8125C24.9375 28.4694 23.5944 29.8125 21.9375 29.8125H10.0625C8.40565 29.8125 7.0625 28.4694 7.0625 26.8125V13.6938Z" fill="url(#paint6_linear_18_26067)"/>
<path d="M7.0625 13.6938C7.0625 10.0487 10.0174 7.09375 13.6625 7.09375H18.3375C21.9826 7.09375 24.9375 10.0487 24.9375 13.6937V26.8125C24.9375 28.4694 23.5944 29.8125 21.9375 29.8125H10.0625C8.40565 29.8125 7.0625 28.4694 7.0625 26.8125V13.6938Z" fill="url(#paint7_linear_18_26067)"/>
<path d="M7.0625 13.6938C7.0625 10.0487 10.0174 7.09375 13.6625 7.09375H18.3375C21.9826 7.09375 24.9375 10.0487 24.9375 13.6937V26.8125C24.9375 28.4694 23.5944 29.8125 21.9375 29.8125H10.0625C8.40565 29.8125 7.0625 28.4694 7.0625 26.8125V13.6938Z" fill="url(#paint8_radial_18_26067)"/>
<path d="M7.0625 13.6938C7.0625 10.0487 10.0174 7.09375 13.6625 7.09375H18.3375C21.9826 7.09375 24.9375 10.0487 24.9375 13.6937V26.8125C24.9375 28.4694 23.5944 29.8125 21.9375 29.8125H10.0625C8.40565 29.8125 7.0625 28.4694 7.0625 26.8125V13.6938Z" fill="url(#paint9_linear_18_26067)"/>
</g>
<path d="M7.0625 13.6938C7.0625 10.0487 10.0174 7.09375 13.6625 7.09375H18.3375C21.9826 7.09375 24.9375 10.0487 24.9375 13.6937V26.8125C24.9375 28.4694 23.5944 29.8125 21.9375 29.8125H10.0625C8.40565 29.8125 7.0625 28.4694 7.0625 26.8125V13.6938Z" fill="url(#paint10_linear_18_26067)"/>
<path opacity="0.5" d="M12.4998 19.1141L15.2579 13.4386C15.4326 13.1318 15.6445 12.938 15.9297 12.938C16.2344 12.938 16.4517 13.1294 16.6258 13.4386L19.5308 19.2598L19.5263 19.2597C19.8174 19.8152 19.9821 20.4474 19.9821 21.118C19.9821 23.3322 18.1872 25.1272 15.973 25.1272C13.7588 25.1272 11.9639 23.3322 11.9639 21.118C11.9639 20.4243 12.1401 19.7717 12.4502 19.2026L12.4743 19.1588C12.4828 19.1439 12.4912 19.129 12.4998 19.1141Z" fill="url(#paint11_linear_18_26067)"/>
<defs>
<filter id="filter0_i_18_26067" x="7.0625" y="7.09375" width="19.375" height="22.7188" filterUnits="userSpaceOnUse" color-interpolation-filters="sRGB">
<feFlood flood-opacity="0" result="BackgroundImageFix"/>
<feBlend mode="normal" in="SourceGraphic" in2="BackgroundImageFix" result="shape"/>
<feColorMatrix in="SourceAlpha" type="matrix" values="0 0 0 0 0 0 0 0 0 0 0 0 0 0 0 0 0 0 127 0" result="hardAlpha"/>
<feOffset dx="1.5"/>
<feGaussianBlur stdDeviation="1.25"/>
<feComposite in2="hardAlpha" operator="arithmetic" k2="-1" k3="1"/>
<feColorMatrix type="matrix" values="0 0 0 0 0.8 0 0 0 0 0.643137 0 0 0 0 0.627451 0 0 0 1 0"/>
<feBlend mode="normal" in2="shape" result="effect1_innerShadow_18_26067"/>
</filter>
<linearGradient id="paint0_linear_18_26067" x1="16.9687" y1="6.5625" x2="13.9844" y2="6.5625" gradientUnits="userSpaceOnUse">
<stop stop-color="#FF878D"/>
<stop offset="1" stop-color="#CF696E"/>
</linearGradient>
<radialGradient id="paint1_radial_18_26067" cx="0" cy="0" r="1" gradientUnits="userSpaceOnUse" gradientTransform="translate(15.6563 7.34375) rotate(-83.0317) scale(2.83343 5.21742)">
<stop offset="0.582289" stop-color="#D6606B" stop-opacity="0"/>
<stop offset="0.94733" stop-color="#B9535B"/>
</radialGradient>
<radialGradient id="paint2_radial_18_26067" cx="0" cy="0" r="1" gradientUnits="userSpaceOnUse" gradientTransform="translate(16.7188 7.34375) rotate(-90) scale(2.28125 0.636628)">
<stop stop-color="#FF8B93"/>
<stop offset="1" stop-color="#FF8B93" stop-opacity="0"/>
</radialGradient>
<linearGradient id="paint3_linear_18_26067" x1="19" y1="4.96875" x2="19.0313" y2="3.54517" gradientUnits="userSpaceOnUse">
<stop stop-color="#F56E7B"/>
<stop offset="1" stop-color="#F56E7B" stop-opacity="0"/>
</linearGradient>
<linearGradient id="paint4_linear_18_26067" x1="13" y1="3.8125" x2="14.7188" y2="3.8125" gradientUnits="userSpaceOnUse">
<stop offset="0.127273" stop-color="#D47F84"/>
<stop offset="1" stop-color="#D47F84" stop-opacity="0"/>
</linearGradient>
<radialGradient id="paint5_radial_18_26067" cx="0" cy="0" r="1" gradientUnits="userSpaceOnUse" gradientTransform="translate(21.5 3.54517) rotate(180) scale(0.796874 0.33548)">
<stop offset="0.309858" stop-color="#FFABB2"/>
<stop offset="1" stop-color="#FFABB2" stop-opacity="0"/>
</radialGradient>
<linearGradient id="paint6_linear_18_26067" x1="23.8437" y1="20.375" x2="13.0937" y2="20.4375" gradientUnits="userSpaceOnUse">
<stop stop-color="#FFDFDD"/>
<stop offset="1" stop-color="#ECACB9"/>
</linearGradient>
<linearGradient id="paint7_linear_18_26067" x1="16" y1="7.09375" x2="16" y2="12.25" gradientUnits="userSpaceOnUse">
<stop stop-color="#FAC5BC"/>
<stop offset="1" stop-color="#FAC5BC" stop-opacity="0"/>
</linearGradient>
<radialGradient id="paint8_radial_18_26067" cx="0" cy="0" r="1" gradientUnits="userSpaceOnUse" gradientTransform="translate(20.9687 10.625) rotate(180) scale(7.3125 5.91964)">
<stop stop-color="#FFF3EB"/>
<stop offset="1" stop-color="#FFE1E2" stop-opacity="0"/>
</radialGradient>
<linearGradient id="paint9_linear_18_26067" x1="26.4688" y1="25.0625" x2="23.2187" y2="25.0625" gradientUnits="userSpaceOnUse">
<stop offset="0.153846" stop-color="#FFC6C4"/>
<stop offset="1" stop-color="#FFC6C4" stop-opacity="0"/>
</linearGradient>
<linearGradient id="paint10_linear_18_26067" x1="18.6563" y1="29.8125" x2="18.6563" y2="27.1875" gradientUnits="userSpaceOnUse">
<stop stop-color="#C675AE"/>
<stop offset="1" stop-color="#E693B9" stop-opacity="0"/>
</linearGradient>
<linearGradient id="paint11_linear_18_26067" x1="20.4688" y1="21.5625" x2="11.9639" y2="21.5625" gradientUnits="userSpaceOnUse">
<stop offset="0.169021" stop-color="#FFF3FF"/>
<stop offset="1" stop-color="#F2C6E2"/>
</linearGradient>
</defs>
</svg>

<svg width="100%" height="100%" viewBox="0 0 32 32" xmlns="http://www.w3.org/2000/svg"><path fill="url(#a)" d="M13.984 4.188h4.031v6.313h-4.031z"/><path fill="url(#b)" d="M13.984 4.188h4.031v6.313h-4.031z"/><path fill="url(#c)" d="M13.984 4.188h4.031v6.313h-4.031z"/><path fill="#FF9294" d="M13 3.545c0-.86.757-1.523 1.61-1.411l6.412.845a.999.999 0 0 1-.13 1.99h-6.468A1.423 1.423 0 0 1 13 3.545"/><path fill="url(#d)" d="M13 3.545c0-.86.757-1.523 1.61-1.411l6.412.845a.999.999 0 0 1-.13 1.99h-6.468A1.423 1.423 0 0 1 13 3.545"/><path fill="url(#e)" d="M13 3.545c0-.86.757-1.523 1.61-1.411l6.412.845a.999.999 0 0 1-.13 1.99h-6.468A1.423 1.423 0 0 1 13 3.545"/><path fill="url(#f)" d="M13 3.545c0-.86.757-1.523 1.61-1.411l6.412.845a.999.999 0 0 1-.13 1.99h-6.468A1.423 1.423 0 0 1 13 3.545"/><g filter="url(#g)"><path fill="url(#h)" d="M7.063 13.694a6.6 6.6 0 0 1 6.6-6.6h4.674a6.6 6.6 0 0 1 6.6 6.6v13.119a3 3 0 0 1-3 3H10.063a3 3 0 0 1-3-3z"/><path fill="url(#i)" d="M7.063 13.694a6.6 6.6 0 0 1 6.6-6.6h4.674a6.6 6.6 0 0 1 6.6 6.6v13.119a3 3 0 0 1-3 3H10.063a3 3 0 0 1-3-3z"/><path fill="url(#j)" d="M7.063 13.694a6.6 6.6 0 0 1 6.6-6.6h4.674a6.6 6.6 0 0 1 6.6 6.6v13.119a3 3 0 0 1-3 3H10.063a3 3 0 0 1-3-3z"/><path fill="url(#k)" d="M7.063 13.694a6.6 6.6 0 0 1 6.6-6.6h4.674a6.6 6.6 0 0 1 6.6 6.6v13.119a3 3 0 0 1-3 3H10.063a3 3 0 0 1-3-3z"/></g><path fill="url(#l)" d="M7.063 13.694a6.6 6.6 0 0 1 6.6-6.6h4.674a6.6 6.6 0 0 1 6.6 6.6v13.119a3 3 0 0 1-3 3H10.063a3 3 0 0 1-3-3z"/><path fill="url(#m)" d="m12.5 19.114 2.758-5.675c.175-.307.387-.501.672-.501.304 0 .522.191.696.5l2.905 5.822h-.005a4.01 4.01 0 1 1-7.076-.057l.024-.044z" opacity=".5"/><defs><linearGradient id="a" x1="16.969" x2="13.984" y1="6.563" y2="6.563" gradientUnits="userSpaceOnUse"><stop stop-color="#FF878D"/><stop offset="1" stop-color="#CF696E"/></linearGradient><linearGradient id="d" x1="19" x2="19.031" y1="4.969" y2="3.545" gradientUnits="userSpaceOnUse"><stop stop-color="#F56E7B"/><stop offset="1" stop-color="#F56E7B" stop-opacity="0"/></linearGradient><linearGradient id="e" x1="13" x2="14.719" y1="3.813" y2="3.813" gradientUnits="userSpaceOnUse"><stop offset=".127" stop-color="#D47F84"/><stop offset="1" stop-color="#D47F84" stop-opacity="0"/></linearGradient><linearGradient id="h" x1="23.844" x2="13.094" y1="20.375" y2="20.438" gradientUnits="userSpaceOnUse"><stop stop-color="#FFDFDD"/><stop offset="1" stop-color="#ECACB9"/></linearGradient><linearGradient id="i" x1="16" x2="16" y1="7.094" y2="12.25" gradientUnits="userSpaceOnUse"><stop stop-color="#FAC5BC"/><stop offset="1" stop-color="#FAC5BC" stop-opacity="0"/></linearGradient><linearGradient id="k" x1="26.469" x2="23.219" y1="25.063" y2="25.063" gradientUnits="userSpaceOnUse"><stop offset=".154" stop-color="#FFC6C4"/><stop offset="1" stop-color="#FFC6C4" stop-opacity="0"/></linearGradient><linearGradient id="l" x1="18.656" x2="18.656" y1="29.813" y2="27.188" gradientUnits="userSpaceOnUse"><stop stop-color="#C675AE"/><stop offset="1" stop-color="#E693B9" stop-opacity="0"/></linearGradient><linearGradient id="m" x1="20.469" x2="11.964" y1="21.563" y2="21.563" gradientUnits="userSpaceOnUse"><stop offset=".169" stop-color="#FFF3FF"/><stop offset="1" stop-color="#F2C6E2"/></linearGradient><radialGradient id="b" cx="0" cy="0" r="1" gradientTransform="matrix(.34375 -2.8125 5.17888 .63298 15.656 7.344)" gradientUnits="userSpaceOnUse"><stop offset=".582" stop-color="#D6606B" stop-opacity="0"/><stop offset=".947" stop-color="#B9535B"/></radialGradient><radialGradient id="c" cx="0" cy="0" r="1" gradientTransform="matrix(0 -2.28125 .63663 0 16.719 7.344)" gradientUnits="userSpaceOnUse"><stop stop-color="#FF8B93"/><stop offset="1" stop-color="#FF8B93" stop-opacity="0"/></radialGradient><radialGradient id="f" cx="0" cy="0" r="1" gradientTransform="matrix(-.79687 0 0 -.33548 21.5 3.545)" gradientUnits="userSpaceOnUse"><stop offset=".31" stop-color="#FFABB2"/><stop offset="1" stop-color="#FFABB2" stop-opacity="0"/></radialGradient><radialGradient id="j" cx="0" cy="0" r="1" gradientTransform="matrix(-7.3125 0 0 -5.91964 20.969 10.625)" gradientUnits="userSpaceOnUse"><stop stop-color="#FFF3EB"/><stop offset="1" stop-color="#FFE1E2" stop-opacity="0"/></radialGradient><filter id="g" width="19.375" height="22.719" x="7.063" y="7.094" color-interpolation-filters="sRGB" filterUnits="userSpaceOnUse"><feFlood flood-opacity="0" result="BackgroundImageFix"/><feBlend in="SourceGraphic" in2="BackgroundImageFix" result="shape"/><feColorMatrix in="SourceAlpha" result="hardAlpha" values="0 0 0 0 0 0 0 0 0 0 0 0 0 0 0 0 0 0 127 0"/><feOffset dx="1.5"/><feGaussianBlur stdDeviation="1.25"/><feComposite in2="hardAlpha" k2="-1" k3="1" operator="arithmetic"/><feColorMatrix values="0 0 0 0 0.8 0 0 0 0 0.643137 0 0 0 0 0.627451 0 0 0 1 0"/><feBlend in2="shape" result="effect1_innerShadow_18_26067"/></filter></defs></svg>
